packages/icons/src/emoji/svg/table-tennis.svg

<svg width="120" height="120" viewBox="0 0 120 120" fill="none" xmlns="http://www.w3.org/2000/svg">
<path d="M85.6687 112.669C91.7939 112.669 96.7594 107.703 96.7594 101.578C96.7594 95.4527 91.7939 90.4873 85.6687 90.4873C79.5436 90.4873 74.5781 95.4527 74.5781 101.578C74.5781 107.703 79.5436 112.669 85.6687 112.669Z" fill="#FBC21A"/>
<path d="M97.6496 67.069C110.672 47.7002 113.568 27.3752 93.8434 12.169C74.1278 -3.04665 55.209 4.91273 39.7778 22.4252C22.0778 42.5159 30.2903 59.5502 30.2903 59.5502L64.1528 85.669C64.1528 85.669 82.7153 89.2877 97.6496 67.069Z" fill="#E5502E"/>
<path d="M64.1528 85.6686L30.2903 59.5498C30.2903 59.5498 37.1809 72.7217 31.959 81.7217C27.8715 88.7529 22.2372 94.6217 17.2965 99.5154C17.0159 99.7926 16.798 100.127 16.6575 100.495C16.517 100.864 16.4572 101.258 16.4821 101.652C16.5069 102.045 16.6159 102.429 16.8017 102.777C16.9875 103.125 17.2458 103.429 17.559 103.669L24.2809 108.853C25.6028 109.875 27.5247 109.5 28.3684 108.047C31.8465 102.028 36.6653 95.2686 42.4309 89.5311C49.7903 82.1904 64.1528 85.6686 64.1528 85.6686Z" fill="#FDCB80"/>
<path d="M31.2379 84.6562L40.1535 73.4343C40.6759 72.7584 41.4453 72.3175 42.2926 72.2085C43.1399 72.0995 43.9958 72.3313 44.6723 72.8531L48.366 75.7125C49.0375 76.2306 49.478 76.9923 49.592 77.8327C49.7061 78.6732 49.4845 79.5248 48.9754 80.2031L40.791 90.4312C40.6879 90.5812 40.491 90.6187 40.3785 90.5343C40.2473 90.4499 40.2191 90.2249 40.3598 90.0749C42.2066 87.1593 44.0441 84.1687 45.891 81.2531C46.566 80.1937 46.3223 78.7968 45.3285 78.0281L43.2004 76.4343C42.7175 76.0604 42.1112 75.8825 41.5028 75.9364C40.8944 75.9903 40.3288 76.2719 39.9191 76.7249L31.641 84.9374C31.5191 85.1062 31.3035 85.1156 31.2191 85.0312C31.1441 84.9468 31.1441 84.7875 31.2379 84.6562Z" fill="#F9AE4B"/>
</svg>

<svg xmlns="http://www.w3.org/2000/svg" fill="none" aria-hidden="true" data-slot="icon" viewBox="0 0 120 120"><path fill="#FBC21A" d="M85.669 112.669c6.125 0 11.09-4.966 11.09-11.091s-4.965-11.09-11.09-11.09-11.09 4.965-11.09 11.09 4.965 11.091 11.09 11.091"/><path fill="#E5502E" d="M97.65 67.069c13.022-19.369 15.918-39.694-3.807-54.9C74.128-3.047 55.21 4.913 39.778 22.425c-17.7 20.09-9.488 37.125-9.488 37.125l33.863 26.12s18.562 3.619 33.497-18.6"/><path fill="#FDCB80" d="M64.153 85.669 30.29 59.549s6.89 13.173 1.669 22.173c-4.087 7.03-9.722 12.9-14.662 17.793a2.76 2.76 0 0 0-.495 3.262c.186.348.444.652.757.892l6.722 5.184a2.768 2.768 0 0 0 4.087-.806c3.479-6.019 8.297-12.778 14.063-18.516 7.36-7.34 21.722-3.862 21.722-3.862"/><path fill="#F9AE4B" d="m31.238 84.656 8.916-11.222a3.223 3.223 0 0 1 4.518-.58l3.694 2.859a3.226 3.226 0 0 1 .61 4.49L40.79 90.431c-.103.15-.3.188-.412.103-.132-.084-.16-.31-.02-.46 1.848-2.915 3.685-5.905 5.532-8.82a2.427 2.427 0 0 0-.562-3.226L43.2 76.434a2.424 2.424 0 0 0-3.28.29l-8.279 8.213c-.122.17-.337.179-.422.094-.075-.084-.075-.244.019-.375"/></svg>
